icons/svg/diamond.svg

<svg width="24" height="24" viewBox="0 0 24 24" fill="none" xmlns="http://www.w3.org/2000/svg">
<path d="M7.68917 9.9148L16.3109 9.9148M7.68917 9.9148H2.75M7.68917 9.9148L11.3403 19.9662M7.68917 9.9148L10.0894 5.98166L10.6406 4.96997M16.3109 9.9148L21.25 9.9148M16.3109 9.9148L12.6598 19.9661M16.3109 9.9148L13.9107 5.98166L13.3438 4.96997M2.75 9.9148C2.75 10.3345 2.82871 10.7542 2.98614 11.1513C3.19815 11.6861 3.62767 12.1788 4.48672 13.1642L7.95316 17.1404C9.34984 18.7425 10.0482 19.5435 10.8762 19.8379C11.0284 19.8919 11.1835 19.9347 11.3403 19.9662M2.75 9.9148C2.75 9.49512 2.82871 9.07543 2.98614 8.67829C3.19815 8.14345 3.62767 7.65076 4.48672 6.66538C4.95256 6.13104 5.18548 5.86387 5.45613 5.65744C5.85748 5.35132 6.32273 5.1397 6.81721 5.03833C7.15067 4.96997 7.50511 4.96997 8.214 4.96997H10.6406M21.25 9.9148C21.25 10.3345 21.1713 10.7542 21.0139 11.1513C20.8019 11.6861 20.3723 12.1788 19.5133 13.1642L16.0468 17.1404C14.6502 18.7425 13.9518 19.5435 13.1238 19.8379C12.9717 19.8919 12.8166 19.9347 12.6598 19.9661M21.25 9.9148C21.25 9.49512 21.1713 9.07543 21.0139 8.67829C20.8019 8.14345 20.3723 7.65076 19.5133 6.66538C19.0474 6.13104 18.8145 5.86387 18.5439 5.65744C18.1425 5.35132 17.6773 5.1397 17.1828 5.03833C16.8493 4.96997 16.4949 4.96997 15.786 4.96997H13.3438M12.6598 19.9661C12.2243 20.0535 11.7758 20.0535 11.3403 19.9662M13.3438 4.96997H10.6406" stroke="currentColor" stroke-width="1.5" stroke-linecap="round" stroke-linejoin="round"/>
</svg>

<svg xmlns="http://www.w3.org/2000/svg" width="24" height="24" fill="none" viewBox="0 0 24 24"><path stroke="currentColor" stroke-linecap="round" stroke-linejoin="round" stroke-width="1.5" d="M7.69 9.915h8.62m-8.62 0H2.75m4.94 0 3.65 10.051M7.69 9.915l2.4-3.933.55-1.012m5.67 4.945h4.94m-4.94 0-3.65 10.051m3.65-10.051-2.4-3.933-.566-1.012M2.75 9.915c0 .42.079.84.236 1.236.212.535.642 1.028 1.5 2.013l3.467 3.976c1.397 1.602 2.095 2.404 2.923 2.698q.229.081.464.128M2.75 9.915c0-.42.079-.84.236-1.237.212-.535.642-1.027 1.5-2.013.467-.534.7-.801.97-1.008a3.36 3.36 0 0 1 1.361-.619c.334-.068.688-.068 1.397-.068h2.427M21.25 9.915c0 .42-.079.84-.236 1.236-.212.535-.642 1.028-1.5 2.013l-3.467 3.976c-1.397 1.602-2.095 2.404-2.923 2.698a3.4 3.4 0 0 1-.464.128m8.59-10.051c0-.42-.079-.84-.236-1.237-.212-.535-.642-1.027-1.5-2.013-.467-.534-.7-.801-.97-1.008a3.36 3.36 0 0 0-1.361-.619c-.334-.068-.688-.068-1.397-.068h-2.442m-.684 14.996a3.4 3.4 0 0 1-1.32 0M13.344 4.97H10.64"/></svg>
